assets/img/SpaceX-Logo.svg

<?xml version="1.0" encoding="UTF-8"?>
<svg version="1.1" viewBox="0 0 400 50" xmlns="http://www.w3.org/2000/svg">
<title>SpaceX Logo</title>
<g class="letter_s">
<path class="fill-white" d="m37.5 30.5h-26.6v-6.6h34.3c-0.9-2.8-3.8-5.4-8.9-5.4h-24.9c-5.7 0-9 2.1-9 6.7v4.9c0 4 3.4 6.3 8.4 6.3h26.9v7h-36.2c0.9 3.8 3.8 5.8 9 5.8h27.1c5.7 0 8.5-2.2 8.5-6.9v-4.9c0-4.3-3.3-6.6-8.6-6.9z"/>
</g>
<g class="letter_p">
<path class="fill-white" d="m91.8 18.6h-32.8v30.7h9.3v-11.8h24.2c6.7 0 10.4-2.3 10.4-7.7v-3.4c-0.1-5-4.3-7.8-11.1-7.8zm3 9.8c0 2.2-0.4 3.4-4 3.4h-22.5l0.1-8h22c4 0 4.5 1.2 4.5 3.3v1.3z"/>
</g>
<g class="letter_a">
<polygon class="fill-white" points="129.9 17.3 124.3 24.2 133.8 37.3 114 37.3 109.1 42.5 137.7 42.5 142.6 49.3 153.6 49.3"/>
</g>
<g class="letter_c">
<path class="fill-white" d="m171.4 23.9h34.8c-0.9-3.6-4.4-5.4-9.4-5.4h-26c-4.5 0-8.8 1.8-8.8 6.7v17.2c0 4.9 4.3 6.7 8.8 6.7h26.3c6 0 8.1-1.7 9.1-5.8h-34.8v-19.4z"/>
</g>
<g class="letter_e">
<polygon class="fill-white" points="228.3 43.5 228.3 34.1 247 34.1 247 28.9 218.9 28.9 218.9 49.3 260.4 49.3 260.4 43.5"/>
<rect class="fill-white" x="219.9" y="18.6" width="41.9" height="5.4"/>
</g>
<g class="letter_x">
<path class="fill-white" d="M287.6,18.6H273l17.2,12.6c2.5-1.7,5.4-3.5,8-5L287.6,18.6z"/>
<path class="fill-white" d="m308.8 34.3c-2.5 1.7-5 3.6-7.4 5.4l13 9.5h14.7l-20.3-14.9z"/>
</g>
<g class="letter_swoosh">
<path class="fill-white" d="m399 0.7c-80 4.6-117 38.8-125.3 46.9l-1.7 1.6h14.8c40-40.1 97.5-47.2 112.2-48.5z"/>
</g>
</svg>

<svg id="Calque_1" data-name="Calque 1" xmlns="http://www.w3.org/2000/svg" viewBox="0 0 397.5 48.6"><defs><style>.cls-1{fill:#fff;}</style></defs><title>SpaceX-Logo</title><path class="cls-1" d="M37.5,30.5H10.9V23.9H45.2c-.9-2.8-3.8-5.4-8.9-5.4H11.4c-5.7,0-9,2.1-9,6.7v4.9c0,4,3.4,6.3,8.4,6.3H37.7v7H1.5c.9,3.8,3.8,5.8,9,5.8H37.6c5.7,0,8.5-2.2,8.5-6.9V37.4C46.1,33.1,42.8,30.8,37.5,30.5Z" transform="translate(-1.5 -0.7)"/><path class="cls-1" d="M91.8,18.6H59V49.3h9.3V37.5H92.5c6.7,0,10.4-2.3,10.4-7.7V26.4C102.8,21.4,98.6,18.6,91.8,18.6Zm3,9.8c0,2.2-.4,3.4-4,3.4H68.3l.1-8h22c4,0,4.5,1.2,4.5,3.3v1.3Z" transform="translate(-1.5 -0.7)"/><polygon class="cls-1" points="128.4 16.6 122.8 23.5 132.3 36.6 112.5 36.6 107.6 41.8 136.2 41.8 141.1 48.6 152.1 48.6 128.4 16.6"/><path class="cls-1" d="M171.4,23.9h34.8c-.9-3.6-4.4-5.4-9.4-5.4h-26c-4.5,0-8.8,1.8-8.8,6.7V42.4c0,4.9,4.3,6.7,8.8,6.7h26.3c6,0,8.1-1.7,9.1-5.8H171.4V23.9Z" transform="translate(-1.5 -0.7)"/><polygon class="cls-1" points="226.8 42.8 226.8 33.4 245.5 33.4 245.5 28.2 217.4 28.2 217.4 48.6 258.9 48.6 258.9 42.8 226.8 42.8"/><rect class="cls-1" x="218.4" y="17.9" width="41.9" height="5.4"/><path class="cls-1" d="M287.6,18.6H273l17.2,12.6c2.5-1.7,5.4-3.5,8-5Z" transform="translate(-1.5 -0.7)"/><path class="cls-1" d="M308.8,34.3c-2.5,1.7-5,3.6-7.4,5.4l13,9.5h14.7L308.8,34.3Z" transform="translate(-1.5 -0.7)"/><path class="cls-1" d="M399,.7C319,5.3,282,39.5,273.7,47.6L272,49.2h14.8C326.8,9.1,384.3,2,399,.7Z" transform="translate(-1.5 -0.7)"/></svg>
